icons/core/beaker.svg

<svg width="32" height="32" viewBox="0 0 32 32" xmlns="http://www.w3.org/2000/svg"><path fill-rule="evenodd" clip-rule="evenodd" d="M8 4.00002H24V2.00002H8V4.00002ZM8 18H24V16H8V18Z"/><path d="M21.0001 4.00002V11.0703C21.0001 11.5979 21.1392 12.116 21.4033 12.5726L27.1453 22.4977C28.3023 24.4977 26.8591 27 24.5485 27H7.45151C5.14092 27 3.69769 24.4977 4.85477 22.4977L10.5968 12.5726C10.861 12.116 11.0001 11.5978 11.0001 11.0703V4.00002" stroke="#000" stroke-width="2"/></svg>

<svg viewBox="0 0 32 32" xmlns="http://www.w3.org/2000/svg"><path fill-rule="evenodd" d="M8 4h16V2H8v2zm0 14h16v-2H8v2z"/><path d="M21 4v7.07a3 3 0 00.403 1.503l5.742 9.925c1.157 2-.286 4.502-2.596 4.502H7.451c-2.311 0-3.754-2.502-2.597-4.502l5.742-9.925A3 3 0 0011 11.07V4" stroke-width="2"/></svg>
